X:5111
T:The Sconce
M:12/8
R:Slide
L:1/8
Q:180
C:Aidan Crossey
K:G
|:BAG BAG B2G G2B|AFF AFF A2F F2c|
BAG BAG B2G G2g|fed cAF G3 G2c:||
|:BAG BAG g2B B3|BAG BAG a2A A3|
BAG BAG g2B B3|def gdB B2A A3:||
|:BdB BdB ged B2G|ABG ABG|AGA c2A|
BdB BdB ged B2G|1 ABA DEF G3 G2c:||
2 ABA DEF G3 G3|
